images/icon1.svg

<svg width="86" height="86" viewBox="0 0 86 86" fill="none" xmlns="http://www.w3.org/2000/svg">
<circle cx="43" cy="43" r="43" fill="#96A9C6"/>
<path d="M32 59H33.1945L54.2671 38.8541C54.5428 38.4978 54.3896 38.3197 53.8077 38.3197H45.1091L54.2671 27.5343C54.5428 27.1781 54.3284 27 53.6545 27H41.985C41.6481 27 41.3724 27.1187 41.0967 27.3562L32.5819 42.0006C32.5207 42.3568 32.7045 42.5349 33.1639 42.5349H41.5868L32 59Z" fill="white"/>
</svg>

<svg xmlns="http://www.w3.org/2000/svg" width="86" height="86" fill="none"><circle cx="43" cy="43" r="43" fill="#96A9C6"/><path fill="#fff" d="M32 59h1.194l21.073-20.146c.276-.356.123-.534-.46-.534H45.11l9.158-10.786c.276-.356.061-.534-.613-.534H41.986c-.337 0-.613.119-.888.356l-8.515 14.645c-.061.356.123.534.582.534h8.423L32 59Z"/></svg>
